!!!OTL: Jungfer Doertchen.
!!!OTL-incipit: Es war ein Jaeger wohlgemut,
!!!ARE: Europa, Mitteleuropa, Deutschland (BRD), Baden
!!!YOR: 3, S. 102
!!    ????
!!!SCT: Q0057T
!!!YEM: Copyright 1995, estate of Helmut Schaffrath.
**kern	**text
*ICvox	*
*M6/8	*
*k[f#]	*
*G:	*
!LO:TX:a:t=44 Baden	!
{8g	Es
4g	war
8b	ein
=1	=1
4dd	Jä-
8ee	-ger
4dd	wohl-
8ee	-ge-
=2	=2
8ddL	-mut,
8bJ}	.
{8b	er
4a	trug
8dd	ʒwei
=3	=3
8cc	Fe-
8cc	-dern
8dd	auf
4a	ſei-
8cc	-nem
=4	=4
8ccL	Hut
8bJ}	.
{8g	die
4g	ein'
8b	war
=5	=5
8bL	weiß,
8aJ	.
8cc	die
4cc	an-
8ee	-der'
=6	=6
8ccL	rot
8bJ}	.
{16gL	'Mich
16aJ	.
4b;	deucht's,
16bL	mich
16ccJ	.
=7	=7
4dd;	deucht's
8dd	mein
4a	Schatʒ
8cc	ſei
=8	=8
8ccL	tot.'
8bJ}	.
==	==
!!!AGN: Ballade, Todesahnung, Tod, Selbstmord
!! Zweistimmig notiert, Oberstimme kodiert.
!!!ONB: ESAC (Essen Associative Code) Database: BALLADE
!!!AMT: compound duple
!!!AIN: vox
!!!EED: Helmut Schaffrath
!!!EEV: 1.0
!!!source: Deutsche Volkslieder mit ihren Melodien. Herausgegeben vom Deutschen Volksliedarchiv. Dritter Band Balladen. Berlin 1954.
!!!page: 102
!!!ENC: Anna Maria Matuszewska
!!!EEV: 2025/02/18
*-	*-
